icon/gr/stack-overflow.svg

<svg xmlns="http://www.w3.org/2000/svg" viewBox="0 0 24 24" height="1em" width="1em">
  <path fill="#FE7A15" fill-rule="evenodd" d="M11.4137208,0.131625 C11.7902208,-0.043875 12.2252208,-0.043875 12.6017208,0.131625 L23.4227208,5.187375 C23.7467208,5.338875 23.7459708,5.800875 23.4204708,5.950875 L12.5154708,10.968375 C12.1929708,11.116875 11.8217208,11.116875 11.4992208,10.968375 L0.594970771,5.950875 C0.269470771,5.800875 0.267970771,5.338875 0.592720771,5.187375 L11.4137208,0.131625 Z M23.4227208,11.6582856 C23.7474708,11.8097856 23.7459708,12.2717856 23.4204708,12.4217856 L12.5162208,17.4392856 C12.1937208,17.5877856 11.8224708,17.5877856 11.4999708,17.4392856 L0.594970771,12.4217856 C0.269470771,12.2717856 0.267970771,11.8097856 0.592720771,11.6582856 L2.82772077,10.6142856 C3.15172077,10.4627856 3.52597077,10.4620356 3.85072077,10.6112856 L11.4999708,14.1302856 C11.8224708,14.2787856 12.1937208,14.2787856 12.5162208,14.1302856 L20.1647208,10.6112856 C20.4894708,10.4620356 20.8637208,10.4627856 21.1877208,10.6142856 L23.4227208,11.6582856 Z M23.4227208,18.1582856 C23.7474708,18.3097856 23.7459708,18.7717856 23.4204708,18.9217856 L12.5162208,23.9392856 C12.1937208,24.0877856 11.8224708,24.0877856 11.4999708,23.9392856 L0.594970771,18.9217856 C0.269470771,18.7717856 0.267970771,18.3097856 0.592720771,18.1582856 L2.82772077,17.1142856 C3.15172077,16.9627856 3.52597077,16.9620356 3.85072077,17.1112856 L11.4999708,20.6302856 C11.8224708,20.7787856 12.1937208,20.7787856 12.5162208,20.6302856 L20.1647208,17.1112856 C20.4894708,16.9620356 20.8637208,16.9627856 21.1877208,17.1142856 L23.4227208,18.1582856 Z"/>
</svg>

<svg xmlns="http://www.w3.org/2000/svg" width="24" height="24"><path fill="#FE7A15" fill-rule="evenodd" d="M11.414.132a1.406 1.406 0 0 1 1.188 0l10.82 5.055a.421.421 0 0 1-.002.764l-10.905 5.017a1.215 1.215 0 0 1-1.016 0L.595 5.951a.42.42 0 0 1-.002-.764L11.413.132Zm12.009 11.526a.42.42 0 0 1-.003.764l-10.904 5.017a1.215 1.215 0 0 1-1.016 0L.595 12.422a.42.42 0 0 1-.002-.764l2.235-1.044a1.216 1.216 0 0 1 1.023-.003l7.649 3.52c.322.148.694.148 1.016 0l7.649-3.52c.324-.149.699-.148 1.023.003l2.235 1.044Zm0 6.5a.42.42 0 0 1-.003.764l-10.904 5.017a1.215 1.215 0 0 1-1.016 0L.595 18.922a.42.42 0 0 1-.002-.764l2.235-1.044a1.216 1.216 0 0 1 1.023-.003l7.649 3.52c.322.148.694.148 1.016 0l7.649-3.52c.324-.149.699-.148 1.023.003l2.235 1.044Z"/></svg>
